X:23004
T:While Shepherds Watched Their Flocks
R:March
C:Trad. - Winchester Old, 1592
O:England
Z:Paul Hardy's Xmas Tunebook 2019 (see www.paulhardy.net). Creative Commons cc by-nc-sa licenced.
M:4/4
L:1/4
Q:1/4=120
K:G
G |"G"B>B "D"A"G"G |"C"cc "G"B "D"A |"G"Bd "A7"d^c |"D"d3|
"G"B |"C"e>d cB |"Am"AG "D"F"G"B |"Am"AG "D7"GF |"G"G3|]
W:While shepherds watched their flocks by night,
W:All seated on the ground,
W:The angel of the Lord came down,
W:And glory shone around.
W:
W:(Nahum Tate, 1700)

